X:1
T:Ave Regina II
T:Ave Regina II
T:Giovanni Rovetta
T:Source : Motetti concertati---Venetia---A.Vincenti---1639. Editor : André Vierendeels (20/06/15).
T:Notes : Original clefs : C1, C1, F4 Editorial accidentals above the staff Figures in BC are notated in original print Subtitle in original print : "A 2 canti o tenori"
C:Giovanni Rovetta
%%score [ 1 2 ] 3
L:1/8
Q:1/4=80
M:4/4
K:C
V:1 treble nm="Soprano 1" snm="S 1"
V:2 treble nm="Soprano 2" snm="S 2"
V:3 bass nm="BC" snm="BC"
V:1
 z4 G4- | G4 E4 | z8 | z2 G4 AA | B2 B2 z2 B2 | c2 c2 z2 e2 | d8 | e4 c4- | c4 A4 | z8 | %10
w: A-|* ve,||a- ve Re-|gi- na,- Re-|gi- na Coe-|lo-|rum, a-|* ve,||
 z2 A4 _B2 | c3 c c4 | _B2 BA A3 G | G4 F2 c2 | c2 de f4 | e4 z4 | z4 c>B A/B/c/A/ | %17
w: a- ve|Do- mi- na,|Do- mi- na An- ge-|lo- rum, Re-|gi- na Coe- lo-|rum,|a- * * * * *|
 _B>A G/A/B/G/ A>G F/G/A/F/ | GA/B/ AB/c/ Bc/d/ c2- | c4 B4- | c8 | z8 | z2 fc _e4 | d2 d3 d c2- | %24
w: ||* ve,|_||sal- ve por-|ta ex qua mun-|
 c2 _B2 A4 | z2 _B2 A4 | G4 z4 | z2 cG _B4 | A2 A_B ccBA | GGEF G2 A2 | B4 z2 c2 | d8 | c8 | z8 | %34
w: * do lux|est or-|ta,|sal- ve por-|ta, sal- ve ra- dix, sal- ve|por- ta ex qua mun- do|lux est|or-|ta,||
 z4 GABc | AABc ddcB | A4 G4 | z8 | d>e c>d B2 d2 | cB A2 G4 | z8 | z4 DEFG | E2 C2 cdef | %43
w: Vir- go glo- ri-|o- sa- su- per o- mnes spe- ci-|o- sa,||gau- * * * * de,|gau- de Vir- go,||Vir- go glo- ri-|o- sa, Vir- go glo- ri-|
 dddd edfe | d8 | c4 z2 G2- | G2 GG G2 GA | _B3 A .BA TA>G | A2 AA A2 _Bc | d3 c dc Tc>.B | %50
w: o- sa su- per o- mnes spe- ci-|o-|sa, va-|* le O val- de de-|co- * * * * *|* ra, O val- de de-|co- * * * * *|
 cc A4 d/c/B/A/ | _B2 G2 z2 c/B/A/G/ | AF c4 _BA | A4 G4 | z8 | z8 |"^b" z2 G4 c/B/A/G/ | %57
w: * ra et pro _ _ _|no- bis, pro _ _ _|no- bis Chri- stum ex-|o- ra,|||et pro _ _ _|
 A2 G2 z2 c/B/A/G/ | A2 G2 z2 c2- | c2 c4 _B2 | A8 | G8 |] %62
w: no- bis, pro _ _ _|no- bis Chri-|* stum ex-|o-|ra.|
V:2
 z8 | z4 G4- | G4 E4 | z2 E4 F^F | G2 G2 z2 G2 | G2 G2 z2 c2 | c4 B4 | c8 | z4 c4- | c4 A4 | %10
w: |A-|* ve,|a- ve Re-|gi- na, Re-|gi- na Coe-|lo- *|rum,|a-|* ve,|
 z2 F4 G2 | A3 A A4 | G2 GG F2 F2 | F3 E F4 | z8 | G2 GG G2 A2 | _B4 A4 | %17
w: a- ve|Do- mi- na,|Do- mi- na An- ge-|lo- * rum,||Do- mi- na An- ge-|lo- rum,|
 G>F E/F/G/E/ F>E D/E/F/D/ | EF/G/ ^FG/A/ DE/F/ G2- | G2 A/G/F/E/ D4 | E8 | z2 cG _B4 | A4 z4 | %23
w: a- * * * * * * * * * * *|||ve,|sal- ve ra-|dix|
 z2 _B3 B A2- | A2 G2 ^F4 | z2 G2 G2 ^F2 | G2 GD F4 | E4 z4 | z2 FG AAGF | EECD E2 ^F2 | G4 z2 c2 | %31
w: ex qua mun-|* do lux|est or- *|ta, sal- ve ra-|dix,|sal- ve ra- dix, sal- ve|por- ta ex qua mun- do|lux est|
 c4 B4 | c8 | G>A F>G E2 G2 | FE D2 C2 z2 | z8 | z4 d>e c>d | B2 d2 cB A2 | G4 z4 | z4 GABc | %40
w: or- *|ta,|gau- * * * * de,|gau- de Vir- go,||gau- * * *|* de, gau- de Vir-|go,|Vir- go glo- ri-|
 AABc ddcB | A4 G4 | GA_Bc A2 G2 | z2 BB cBdc | c4 B4 | c4 z2 E2- | E2 EE E2 ^FF | G3 ^F GF F>E | %48
w: o- sa su- per o- mnes spe- ci-|o- sa,|Vir- go glo- ri- o- sa|su- per o- mnes spe- ci-|o- sa,|_ va-|* le O val- de de-|co- * * * * *|
 ^F2 FF F2 GA | _B3 A BA A>G | A2 A2 z4 | z8 | z8 | z2 D4 G/F/E/D/ |"^b" E2 C2 z2 c/B/A/G/ | %55
w: * ra, O val- de de-|co- * * * * *|* ra|||et pro _ _ _|no- bis, pro _ _ _|
 AF f4 ed | d4 c4 |"^b" z2 c/B/A/G/ A2 G2 |"^b" z2 c/B/A/G/ A2 G2 | z2 A3 A G2 | F8 | E8 |] %62
w: no- bis Chri- stum ex-|o- ra,|pro _ _ _ no- bis,|pro _ _ _ no- bis|Chri- stum ex-|o-|ra.|
V:3
 C,8- | C,8 | C,8 |"^6" z2 C,4 A,,2 | G,,4 z2 G,2 |"^6" E,4 C,4 | G,8 | C,8 | F,,8- | F,,8 | %10
 F,,8- | F,,8 |"^6" G,,4 A,,2 _B,,2 | C,4 F,,4 | F,2 E,2 D,4 | C,4 _B,,2 A,,2 | G,,4 F,,4 | %17
 G,,4 F,,4 |"^6" C,2 A,,2 G,,2 E,,2 | G,,8 | C,8 |"^6" C,3 C, D,2 E,2 |"^6" F,3 F, G,2 A,2 | %23
 _B,2 _B,,2 F,4- |"^6""^#" F,2 G,2 D,4 |"^6" z2 G,,2 D,4 | G,,3 G,, A,,2 B,,2 | %27
"^6""^6" C,3 C, D,2 E,2 | F,4 F,,4 | C,6 A,,2 |"^-natural" G,,4 F,,4 | G,,8 | C,8 | %33
 C,2 D,2 E,2 C,2 | F,2 G,2 C,2 G,,2 |"^#" D,3 C, B,,2 C,2 | D,4 G,,2 A,,2 | B,,2 G,,2 C,2 D,2 | %38
 G,,2 A,,2 B,,2 G,,2 | C,2 D,2 G,,4 |"^#" D,3 C, B,,2 C,2 | D,4 G,,4 | C,4 F,,2 C,2 | %43
 G,,4 C,2 F,,2 | G,,8 | C,4 z2 C,2- |"^6" C,2 C,2 C,2 A,,2 |"^b" G,,8 |"^#" D,6 C,2 | _B,,8 | %50
 F,4 ^F,4 |"^b""^6" G,4 E,4 |"^b" F,3 ^F, G,2 G,,2 |"^b" D,4 G,,4 | C,8 | F,,4 C,4 | G,,4 C,4 | %57
 F,2 E,2 F,2 C,2 | F,2 E,2 F,2 C,2 | z2 F,,4 E,,2 | F,,8 | C,8 |] %62

